assets/icons/energy_grid.svg

<svg fill="none" height="25" viewBox="0 0 25 25" width="25"><path clip-rule="evenodd" d="m6.304 10h-1.028c-1.48 0-2.066-1.917-.837-2.744l1.865-1.256h-1.028c-1.48 0-2.066-1.917-.836-2.744l2.97-2a1.5 1.5 0 0 1 .837-.256h8.506c.299 0 .59.089.838.256l2.97 2c1.229.827.645 2.744-.836 2.744h-1.028l1.866 1.256c1.228.827.643 2.744-.838 2.744h-1.028l1.866 1.256c1.228.826.643 2.744-.838 2.744h-1.985l3.725 9.314a.5.5 0 0 1 -.845.51l-8.12-9.552-8.119 9.552a.5.5 0 0 1 -.845-.51l3.726-9.314h-1.986c-1.48 0-2.066-1.918-.837-2.744zm1.196-7.5.003-.102-2.506 1.687a.5.5 0 0 0 .28.915h2.223zm1 3.5h.75a.5.5 0 1 0 0-1h-.75v-1.958l3.138 2.896-3.138 2.895zm1.294 3h5.162l-2.58-2.382-2.583 2.382zm3.318-3.062 3.319 3.062h.07v-3h-.75a.5.5 0 1 1 0-1h.75v-2.189zm2.793-3.938h-6.905a.5.5 0 0 0 -.134.018l3.51 3.24 3.528-3.258zm-8.405 11h-2.224a.5.5 0 0 1 -.279-.915l2.503-1.685zm1 0v-3h8v3zm9 0h2.224a.5.5 0 0 0 .28-.915l-2.504-1.685zm-9.16 1-2.74 6.845 5.819-6.845h-3.08zm5.242 0 5.819 6.845-2.739-6.845zm6.422-5.915-2.504-1.685v2.6h2.224a.5.5 0 0 0 .28-.915zm-15.006 0 2.502-1.685v2.6h-2.224a.5.5 0 0 1 -.279-.915zm12.502-3.085h2.224a.5.5 0 0 0 .28-.915l-2.507-1.687.003.102z" fill="#18303f" fill-rule="evenodd"/></svg>

<svg width="25" height="25" viewBox="0 0 25 25" fill="none"><g id="energy_grid"><path id="iconDefault" fill-rule="evenodd" clip-rule="evenodd" d="M6.304 10H5.276c-1.48 0-2.066-1.917-.837-2.744L6.304 6H5.276C3.796 6 3.21 4.083 4.44 3.256l2.97-2A1.5 1.5 0 0 1 8.247 1h8.506c.299 0 .59.089.838.256l2.97 2C21.79 4.083 21.206 6 19.725 6h-1.028l1.866 1.256c1.228.827.643 2.744-.838 2.744h-1.028l1.866 1.256c1.228.826.643 2.744-.838 2.744h-1.985l3.725 9.314a.5.5 0 0 1-.845.51L12.5 14.272l-8.119 9.552a.5.5 0 0 1-.845-.51L7.262 14H5.276c-1.48 0-2.066-1.918-.837-2.744L6.304 10ZM7.5 2.5l.003-.102-2.506 1.687a.5.5 0 0 0 .28.915H7.5V2.5Zm1 3.5h.75a.5.5 0 1 0 0-1H8.5V3.042l3.138 2.896L8.5 8.833V6Zm1.294 3h5.162l-2.58-2.382L9.793 9Zm3.318-3.062L16.431 9h.07V6h-.75a.5.5 0 1 1 0-1h.75V2.811l-3.389 3.127ZM15.905 2H9a.5.5 0 0 0-.134.018l3.51 3.24L15.904 2ZM7.5 13H5.276a.5.5 0 0 1-.279-.915L7.5 10.4V13Zm1 0v-3h8v3h-8Zm9 0h2.224a.5.5 0 0 0 .28-.915L17.5 10.4V13ZM8.34 14 5.6 20.845 11.419 14h-3.08Zm5.242 0 5.819 6.845L16.662 14h-3.08Zm6.422-5.915L17.5 6.4V9h2.224a.5.5 0 0 0 .28-.915Zm-15.006 0L7.5 6.4V9H5.276a.5.5 0 0 1-.279-.915ZM17.5 5h2.224a.5.5 0 0 0 .28-.915l-2.507-1.687.003.102V5Z" fill="#18303F"/></g></svg>
